;FLAVOR:Marlin
;TIME:4348
;Filament used: 8.48186m
;Layer height: 0.4
;MINX:54.054
;MINY:55.12
;MINZ:0.4
;MAXX:139.33
;MAXY:139.239
;MAXZ:19.2
;Generated with Cura_SteamEngine 4.13.0
M140 S60
M105
M190 S60
M104 S205
M105
M109 S205
M82 ;absolute extrusion mode
; Ender 3 Custom Start G-code
G92 E0 ; Reset Extruder
G28 ; Home all axes
G1 Z2.0 F3000 ; Move Z Axis up little to prevent scratching of Heat Bed
G1 X0.1 Y20 Z0.3 F5000.0 ; Move to start position
G1 X0.1 Y200.0 Z0.3 F1500.0 E15 ; Draw the first line
G1 X0.4 Y200.0 Z0.3 F5000.0 ; Move to side a little
G1 X0.4 Y20 Z0.3 F1500.0 E30 ; Draw the second line
G92 E0 ; Reset Extruder
G1 Z2.0 F3000 ; Move Z Axis up little to prevent scratching of Heat Bed
G1 X5 Y20 Z0.3 F5000.0 ; Move over to prevent blob squish
G92 E0
G92 E0
;LAYER_COUNT:48
;LAYER:0
M107
M204 S500
G0 F6000 X68.972 Y88.736 Z0.4
;TYPE:SKIRT
G1 F1200 X55.478 Y99.498 E1.72221
G1 X55.394 Y99.604 E1.73571
G1 X55.1 Y100.223 E1.80408
G1 X55.071 Y100.352 E1.81728
G1 X55.071 Y117.601 E3.53839
G1 X55.1 Y117.73 E3.55158
G1 X55.394 Y118.349 E3.61996
G1 X55.478 Y118.455 E3.63345
G1 X68.972 Y129.216 E5.35561
G1 X69.092 Y129.273 E5.36886
G1 X69.76 Y129.427 E5.43726
G1 X69.894 Y129.427 E5.45063
G1 X86.72 Y125.586 E7.17273
G1 X86.84 Y125.529 E7.18598
G1 X87.376 Y125.103 E7.2543
G1 X87.459 Y124.998 E7.26765
G1 X94.946 Y109.448 E8.98972
G1 X94.976 Y109.318 E9.00303
G1 X94.976 Y108.634 E9.07128
G1 X94.946 Y108.504 E9.08459
G1 X87.459 Y92.955 E10.80657
G1 X87.376 Y92.85 E10.81992
G1 X86.84 Y92.424 E10.88824
G1 X86.72 Y92.367 E10.9015
G1 X69.894 Y88.525 E12.62361
G1 X69.76 Y88.525 E12.63698
G1 X69.092 Y88.679 E12.70539
G1 X68.972 Y88.736 E12.71864
G0 F6000 X69.209 Y87.634
G1 F1200 X87.729 Y91.861 E14.6141
G1 X95.968 Y108.977 E16.5095
G1 X87.727 Y126.093 E18.40499
G1 X69.208 Y130.319 E20.30033
G1 X54.354 Y118.47 E22.19626
G1 X54.354 Y99.479 E24.09119
G1 X69.209 Y87.634 E25.98695
;MESH:7-sided-pill-box-Box-lid-1dot75.stl
G0 F6000 X69.908 Y90.699
G0 X84.551 Y95.846
G0 X90.874 Y108.976
G0 X85.715 Y123.56
G0 X85.986 Y123.908
;TYPE:WALL-OUTER
G1 F1200 X69.829 Y127.596 E27.64057
G1 X56.871 Y117.262 E29.29434
G1 X56.871 Y100.691 E30.9478
G1 X69.829 Y90.356 E32.60164
G1 X85.986 Y94.045 E34.25527
G1 X93.176 Y108.976 E35.90883
G1 X85.986 Y123.908 E37.56248
G0 F6000 X85.562 Y123.328
G0 X85.571 Y123.387
;TYPE:WALL-INNER
G1 F1200 X69.977 Y126.947 E39.15849
G1 X57.471 Y116.973 E40.75461
G1 X57.471 Y100.98 E42.35039
G1 X69.977 Y91.005 E43.94657
G1 X85.571 Y94.566 E45.5426
G1 X92.51 Y108.976 E47.13846
G1 X85.571 Y123.387 E48.7344
G0 F6000 X85.156 Y122.866
G1 F1200 X70.125 Y126.298 E50.2728
G1 X58.071 Y116.684 E51.81126
G1 X58.071 Y101.269 E53.34937
G1 X70.125 Y91.654 E54.88789
G1 X85.156 Y95.087 E56.42631
G1 X91.844 Y108.976 E57.96446
G1 X85.156 Y122.866 E59.50271
G0 F6000 X84.741 Y122.345
G1 F1200 X70.273 Y125.649 E60.98349
G1 X58.671 Y116.395 E62.46429
G1 X58.671 Y101.558 E63.94473
G1 X70.273 Y92.303 E65.4256
G1 X84.741 Y95.608 E66.90641
G1 X91.178 Y108.976 E68.38685
G1 X84.741 Y122.345 E69.86739
G0 F6000 X84.334 Y121.833
;TYPE:SKIN
G1 F1200 X70.42 Y125.011 E71.29149
G1 X59.261 Y116.11 E72.71577
G1 X59.261 Y101.843 E74.13934
G1 X70.42 Y92.941 E75.56368
G1 X84.334 Y96.12 E76.9878
G1 X90.523 Y108.976 E78.41148
G1 X84.334 Y121.833 E79.83525
G0 F6000 X84.675 Y121.998
G0 X90.874 Y108.976
G0 X84.551 Y95.846
G0 X83.568 Y95.556
G0 X83.43 Y96.158
G1 F1200 X84.697 Y97.425 E80.01404
G0 F6000 X85.255 Y97.158
G0 X86.043 Y98.795
G0 X85.485 Y99.062
G1 F1200 X82.33 Y95.907 E80.45925
G0 F6000 X82.468 Y95.305
G0 X81.369 Y95.054
G0 X81.231 Y95.655
G1 F1200 X86.273 Y100.698 E81.1708
G0 F6000 X86.83 Y100.431
G0 X87.618 Y102.066
G0 X87.06 Y102.333
G1 F1200 X80.131 Y95.404 E82.14855
G0 F6000 X80.269 Y94.803
G0 X79.169 Y94.551
G0 X79.031 Y95.153
G1 F1200 X87.848 Y103.97 E83.39273
G0 F6000 X88.406 Y103.702
G0 X89.193 Y105.337
G0 X88.635 Y105.605
G1 F1200 X77.931 Y94.902 E84.90311
G0 F6000 X78.069 Y94.3
G0 X76.97 Y94.049
G0 X76.832 Y94.651
G1 F1200 X89.422 Y107.241 E86.67969
G0 F6000 X89.981 Y106.973
G0 X90.769 Y108.61
G0 X90.21 Y108.878
G1 F1200 X75.731 Y94.399 E88.72284
G0 F6000 X75.869 Y93.797
G0 X74.77 Y93.546
G0 X74.632 Y94.148
G1 F1200 X89.998 Y109.514 E90.89114
G0 F6000 X89.722 Y110.087
G1 F1200 X73.532 Y93.897 E93.17573
G0 F6000 X73.67 Y93.295
G0 X72.57 Y93.044
G0 X72.432 Y93.645
G1 F1200 X89.446 Y110.66 E95.57666
G0 F6000 X89.171 Y111.232
G1 F1200 X71.332 Y93.394 E98.09386
G0 F6000 X70.374 Y93.284
G1 F1200 X88.895 Y111.805 E100.70738
G0 F6000 X88.619 Y112.378
G1 F1200 X69.902 Y93.661 E103.34855
G0 F6000 X69.43 Y94.037
G1 F1200 X88.343 Y112.951 E106.01745
G0 F6000 X88.068 Y113.524
G1 F1200 X68.958 Y94.414 E108.71407
G0 F6000 X68.486 Y94.79
G1 F1200 X87.792 Y114.097 E111.43843
G0 F6000 X87.517 Y114.67
G1 F1200 X68.014 Y95.167 E114.19051
G0 F6000 X67.542 Y95.543
G1 F1200 X87.241 Y115.242 E116.97025
G0 F6000 X86.965 Y115.815
G1 F1200 X67.07 Y95.92 E119.77765
G0 F6000 X66.598 Y96.296
G1 F1200 X86.689 Y116.388 E122.61278
G0 F6000 X86.414 Y116.961
G1 F1200 X66.126 Y96.673 E125.47564
G0 F6000 X65.654 Y97.049
G1 F1200 X86.138 Y117.533 E128.36615
G0 F6000 X85.862 Y118.106
G1 F1200 X65.182 Y97.426 E131.28432
G0 F6000 X64.71 Y97.802
G1 F1200 X85.586 Y118.679 E134.23022
G0 F6000 X85.311 Y119.252
G1 F1200 X64.238 Y98.179 E137.20385
G0 F6000 X63.766 Y98.555
G1 F1200 X85.035 Y119.824 E140.20514
G0 F6000 X84.76 Y120.398
G1 F1200 X63.294 Y98.932 E143.23422
G0 F6000 X62.822 Y99.308
G1 F1200 X84.484 Y120.971 E146.29103
G0 F6000 X84.208 Y121.543
G1 F1200 X62.35 Y99.685 E149.37543
G0 F6000 X61.878 Y100.061
G1 F1200 X83.575 Y121.759 E152.43718
G0 F6000 X82.884 Y121.917
G1 F1200 X61.406 Y100.438 E155.46803
G0 F6000 X60.934 Y100.815
G1 F1200 X82.194 Y122.074 E158.46798
G0 F6000 X81.503 Y122.232
G1 F1200 X60.462 Y101.191 E161.43709
G0 F6000 X59.99 Y101.568
G1 F1200 X80.813 Y122.39 E164.37537
G0 F6000 X80.122 Y122.548
G1 F1200 X59.518 Y101.944 E167.28282
G0 F6000 X59.5 Y102.775
G1 F1200 X79.431 Y122.706 E170.0953
G0 F6000 X78.74 Y122.864
G1 F1200 X59.5 Y103.624 E172.81027
G0 F6000 X59.5 Y104.472
G1 F1200 X78.049 Y123.021 E175.42773
G0 F6000 X77.358 Y123.179
G1 F1200 X59.5 Y105.321 E177.94769
G0 F6000 X59.5 Y106.169
G1 F1200 X76.668 Y123.337 E180.37028
G0 F6000 X75.977 Y123.494
G1 F1200 X59.5 Y107.018 E182.69529
G0 F6000 X59.5 Y107.867
G1 F1200 X75.287 Y123.653 E184.92294
G0 F6000 X74.596 Y123.81
G1 F1200 X59.5 Y108.715 E187.05308
G0 F6000 X59.5 Y109.564
G1 F1200 X73.905 Y123.968 E189.08571
G0 F6000 X73.214 Y124.126
G1 F1200 X59.5 Y110.412 E191.0209
G0 F6000 X59.5 Y111.261
G1 F1200 X72.523 Y124.283 E192.85852
G0 F6000 X71.832 Y124.441
G1 F1200 X59.5 Y112.109 E194.59869
G0 F6000 X59.5 Y112.958
G1 F1200 X71.142 Y124.599 E196.24144
G0 F6000 X70.311 Y124.616
G1 F1200 X59.5 Y113.806 E197.76691
G0 F6000 X59.5 Y114.655
G1 F1200 X66.115 Y121.27 E198.70036
G0 F6000 X65.728 Y121.755
G0 X61.531 Y118.407
G0 X61.919 Y117.922
G1 F1200 X59.5 Y115.503 E199.04171
G0 F6000 X58.381 Y115.503
;MESH:7-sided-pill-box-Box-1dot75.stl
G0 X58.945 Y116.263
G0 X70.341 Y125.352
G0 X84.551 Y122.107
G0 X87.588 Y119.845
G0 X88.746 Y120.401
G0 X96.235 Y118.652
G0 X98.626 Y117.5
G0 X107.376 Y131.624
G0 X123.069 Y136.929
G0 X123.172 Y137.358
;TYPE:WALL-OUTER
G1 F1200 X105.941 Y133.425 E200.80524
G1 X98.273 Y117.5 E202.56886
G1 X105.941 Y101.575 E204.33247
G1 X123.172 Y97.642 E206.096
G1 X136.992 Y108.663 E207.85976
G1 X136.992 Y126.337 E209.62328
G1 X123.172 Y137.358 E211.38704
G0 F6000 X122.986 Y136.663
G0 X123.024 Y136.709
;TYPE:WALL-INNER
G1 F1200 X106.356 Y132.904 E213.09296
G1 X98.939 Y117.5 E214.79887
G1 X106.356 Y102.096 E216.50478
G1 X123.024 Y98.291 E218.21071
G1 X136.392 Y108.952 E219.91681
G1 X136.392 Y126.048 E221.62265
G1 X123.024 Y136.709 E223.32875
G0 F6000 X122.876 Y136.06
G1 F1200 X106.771 Y132.383 E224.97707
G1 X99.605 Y117.5 E226.62527
G1 X106.771 Y102.617 E228.27348
G1 X122.876 Y98.94 E229.92179
G1 X135.792 Y109.241 E231.57024
G1 X135.792 Y125.759 E233.21841
G1 X122.876 Y136.06 E234.86685
G0 F6000 X122.728 Y135.411
G1 F1200 X107.186 Y131.862 E236.45756
G1 X100.271 Y117.5 E238.04806
G1 X107.186 Y103.138 E239.63856
G1 X122.728 Y99.589 E241.22927
G1 X135.192 Y109.53 E242.82005
G1 X135.192 Y125.47 E244.41055
G1 X122.728 Y135.411 E246.00134
G0 F6000 X122.581 Y134.773
;TYPE:SKIN
G1 F1200 X107.593 Y131.35 E247.53535
G1 X100.926 Y117.5 E249.06909
G1 X107.593 Y103.65 E250.60282
G1 X122.581 Y100.227 E252.13684
G1 X134.602 Y109.815 E253.6711
G1 X134.602 Y125.185 E255.20473
G1 X122.581 Y134.773 E256.73899
G0 F6000 X122.496 Y135.142
G0 X108.231 Y131.884
G0 X108.369 Y131.28
G1 F1200 X107.319 Y130.229 E256.88723
G0 F6000 X106.761 Y130.497
G0 X105.974 Y128.861
G0 X106.532 Y128.593
G1 F1200 X109.47 Y131.531 E257.30181
G0 F6000 X109.331 Y132.136
G0 X110.43 Y132.387
G0 X110.569 Y131.782
G1 F1200 X105.744 Y126.957 E257.98267
G0 F6000 X105.186 Y127.225
G0 X104.398 Y125.589
G0 X104.957 Y125.321
G1 F1200 X111.669 Y132.033 E258.92981
G0 F6000 X111.53 Y132.638
G0 X112.631 Y132.889
G0 X112.769 Y132.285
G1 F1200 X104.169 Y123.685 E260.14336
G0 F6000 X103.611 Y123.953
G0 X102.823 Y122.317
G0 X103.381 Y122.049
G1 F1200 X113.868 Y132.536 E261.62319
G0 F6000 X113.73 Y133.14
G0 X114.83 Y133.391
G0 X114.968 Y132.787
G1 F1200 X102.594 Y120.413 E263.3693
G0 F6000 X102.035 Y120.681
G0 X101.248 Y119.045
G0 X101.807 Y118.777
G1 F1200 X116.068 Y133.039 E265.38175
G0 F6000 X115.93 Y133.643
G0 X117.03 Y133.894
G0 X117.168 Y133.29
G1 F1200 X101.252 Y117.374 E267.62767
G0 F6000 X101.527 Y116.801
G1 F1200 X118.267 Y133.541 E269.98986
G0 F6000 X118.129 Y134.145
G0 X119.23 Y134.396
G0 X119.368 Y133.793
G1 F1200 X101.802 Y116.227 E272.46861
G0 F6000 X102.078 Y115.655
G1 F1200 X120.467 Y134.044 E275.0635
G0 F6000 X120.329 Y134.647
G0 X121.429 Y134.898
G0 X121.567 Y134.295
G1 F1200 X102.354 Y115.082 E277.77466
G0 F6000 X102.63 Y114.509
G1 F1200 X122.584 Y134.463 E280.59039
G0 F6000 X123.055 Y134.086
G1 F1200 X102.905 Y113.936 E283.43377
G0 F6000 X103.181 Y113.364
G1 F1200 X123.528 Y133.71 E286.30488
G0 F6000 X123.999 Y133.333
G1 F1200 X103.457 Y112.791 E289.20358
G0 F6000 X103.733 Y112.218
G1 F1200 X124.472 Y132.957 E292.13008
G0 F6000 X124.943 Y132.58
G1 F1200 X104.009 Y111.645 E295.08416
G0 F6000 X104.284 Y111.073
G1 F1200 X125.415 Y132.204 E298.06597
G0 F6000 X125.887 Y131.827
G1 F1200 X104.56 Y110.5 E301.07544
G0 F6000 X104.835 Y109.926
G1 F1200 X126.359 Y131.451 E304.11278
G0 F6000 X126.831 Y131.074
G1 F1200 X105.111 Y109.354 E307.17771
G0 F6000 X105.387 Y108.781
G1 F1200 X127.303 Y130.698 E310.27036
G0 F6000 X127.775 Y130.321
G1 F1200 X105.662 Y108.208 E313.39075
G0 F6000 X105.938 Y107.635
G1 F1200 X128.247 Y129.945 E316.53886
G0 F6000 X128.719 Y129.568
G1 F1200 X106.214 Y107.063 E319.71456
G0 F6000 X106.49 Y106.49
G1 F1200 X129.191 Y129.191 E322.91791
G0 F6000 X129.663 Y128.815
G1 F1200 X106.766 Y105.917 E326.149
G0 F6000 X107.041 Y105.344
G1 F1200 X130.135 Y128.438 E329.40781
G0 F6000 X130.608 Y128.062
G1 F1200 X107.317 Y104.772 E332.69435
G0 F6000 X107.593 Y104.199
G1 F1200 X131.079 Y127.685 E336.00848
G0 F6000 X131.552 Y127.309
G1 F1200 X108.037 Y103.794 E339.3267
G0 F6000 X108.728 Y103.637
G1 F1200 X132.023 Y126.932 E342.61388
G0 F6000 X132.496 Y126.556
G1 F1200 X109.419 Y103.479 E345.87029
G0 F6000 X110.109 Y103.321
G1 F1200 X132.967 Y126.179 E349.0958
G0 F6000 X133.44 Y125.803
G1 F1200 X110.8 Y103.163 E352.29055
G0 F6000 X111.49 Y103.005
G1 F1200 X133.911 Y125.426 E355.4544
G0 F6000 X134.361 Y125.027
G1 F1200 X112.181 Y102.847 E358.58423
G0 F6000 X112.872 Y102.69
G1 F1200 X134.361 Y124.179 E361.61656
G0 F6000 X134.361 Y123.33
G1 F1200 X113.563 Y102.532 E364.55139
G0 F6000 X114.254 Y102.374
G1 F1200 X134.361 Y122.482 E367.38877
G0 F6000 X134.361 Y121.633
G1 F1200 X114.944 Y102.216 E370.12872
G0 F6000 X115.635 Y102.058
G1 F1200 X134.361 Y120.785 E372.77123
G0 F6000 X134.361 Y119.936
G1 F1200 X116.326 Y101.901 E375.31616
G0 F6000 X117.016 Y101.743
G1 F1200 X134.361 Y119.088 E377.76373
G0 F6000 X134.361 Y118.239
G1 F1200 X117.707 Y101.585 E380.11379
G0 F6000 X118.397 Y101.427
G1 F1200 X134.361 Y117.391 E382.36648
G0 F6000 X134.361 Y116.542
G1 F1200 X119.088 Y101.269 E384.52167
G0 F6000 X119.779 Y101.112
G1 F1200 X134.361 Y115.693 E386.57928
G0 F6000 X134.361 Y114.845
G1 F1200 X120.47 Y100.954 E388.53945
G0 F6000 X121.161 Y100.796
G1 F1200 X134.361 Y113.996 E390.40211
G0 F6000 X134.361 Y113.148
G1 F1200 X121.852 Y100.638 E392.16733
G0 F6000 X122.653 Y100.591
G1 F1200 X134.361 Y112.299 E393.81946
G0 F6000 X134.361 Y111.451
G1 F1200 X126.847 Y103.937 E394.87977
G0 F6000 X127.235 Y103.452
G0 X131.429 Y106.797
G0 X131.041 Y107.282
G1 F1200 X134.361 Y110.602 E395.34825
G0 F6000 X135.482 Y110.602
;MESH:7-sided-pill-box-Box-1dot75.stl(1)
G0 X134.918 Y109.662
G0 X122.66 Y99.886
G0 X106.16 Y101.85
G0 X105.57 Y99.263
G0 X104.935 Y96.48
G0 X102.743 Y96.878
G0 X102.648 Y97.309
;TYPE:WALL-OUTER
G1 F1200 X88.829 Y86.288 E397.11193
G1 X88.829 Y68.614 E398.87545
G1 X102.648 Y57.593 E400.63913
G1 X119.88 Y61.527 E402.40279
G1 X127.548 Y77.451 E404.16631
G1 X119.88 Y93.376 E405.92992
G1 X102.648 Y97.309 E407.69356
G0 F6000 X102.781 Y96.602
G0 X102.796 Y96.66
;TYPE:WALL-INNER
G1 F1200 X89.429 Y85.999 E409.39958
G1 X89.429 Y68.903 E411.10542
G1 X102.796 Y58.242 E412.81145
G1 X119.465 Y62.048 E414.51749
G1 X126.882 Y77.451 E416.22331
G1 X119.465 Y92.855 E417.92922
G1 X102.796 Y96.66 E419.63524
G0 F6000 X102.944 Y96.011
G1 F1200 X90.029 Y85.71 E421.28361
G1 X90.029 Y69.192 E422.93178
G1 X102.944 Y58.891 E424.58014
G1 X119.05 Y62.569 E426.22858
G1 X126.216 Y77.451 E427.87669
G1 X119.05 Y92.334 E429.5249
G1 X102.944 Y96.011 E431.17331
G0 F6000 X103.092 Y95.362
G1 F1200 X90.629 Y85.421 E432.76402
G1 X90.629 Y69.481 E434.35452
G1 X103.092 Y59.54 E435.94522
G1 X118.635 Y63.09 E437.53605
G1 X125.55 Y77.451 E439.12646
G1 X118.635 Y91.813 E440.71696
G1 X103.092 Y95.362 E442.30776
G0 F6000 X103.239 Y94.724
;TYPE:SKIN
G1 F1200 X91.219 Y85.136 E443.84195
G1 X91.219 Y69.766 E445.37558
G1 X103.239 Y60.178 E446.90976
G1 X118.228 Y63.602 E448.4439
G1 X124.895 Y77.451 E449.97754
G1 X118.228 Y91.301 E451.51128
G1 X103.239 Y94.724 E453.04539
G0 F6000 X103.323 Y95.094
G0 X90.903 Y85.289
G0 X90.839 Y84.67
G0 X91.458 Y84.67
G1 F1200 X93.185 Y86.397 E453.28909
G0 F6000 X92.798 Y86.882
G0 X90.903 Y85.289
G0 X90.839 Y83.821
G0 X91.458 Y83.821
G1 F1200 X97.381 Y89.744 E454.12489
G0 F6000 X96.993 Y90.229
G0 X101.191 Y93.577
G0 X101.578 Y93.092
G1 F1200 X91.458 Y82.973 E455.55286
G0 F6000 X91.458 Y82.124
G1 F1200 X103.705 Y94.371 E457.28105
G0 F6000 X104.396 Y94.214
G1 F1200 X91.458 Y81.276 E459.10674
G0 F6000 X91.458 Y80.427
G1 F1200 X105.087 Y94.056 E461.02994
G0 F6000 X105.777 Y93.898
G1 F1200 X91.458 Y79.579 E463.0505
G0 F6000 X91.458 Y78.73
G1 F1200 X106.468 Y93.74 E465.16858
G0 F6000 X107.159 Y93.582
G1 F1200 X91.458 Y77.882 E467.38409
G0 F6000 X91.458 Y77.033
G1 F1200 X107.85 Y93.425 E469.69717
G0 F6000 X108.54 Y93.267
G1 F1200 X91.458 Y76.185 E472.10763
G0 F6000 X91.458 Y75.336
G1 F1200 X109.231 Y93.109 E474.61559
G0 F6000 X109.922 Y92.952
G1 F1200 X91.458 Y74.488 E477.22106
G0 F6000 X91.458 Y73.639
G1 F1200 X110.613 Y92.794 E479.92404
G0 F6000 X111.303 Y92.635
G1 F1200 X91.458 Y72.79 E482.72438
G0 F6000 X91.458 Y71.942
G1 F1200 X111.994 Y92.478 E485.62223
G0 F6000 X112.685 Y92.32
G1 F1200 X91.458 Y71.093 E488.61759
G0 F6000 X91.458 Y70.245
G1 F1200 X113.376 Y92.162 E491.71039
G0 F6000 X114.066 Y92.005
G1 F1200 X91.728 Y69.666 E494.86259
G0 F6000 X92.201 Y69.29
G1 F1200 X114.757 Y91.847 E498.04556
G0 F6000 X115.448 Y91.689
G1 F1200 X92.672 Y68.913 E501.2595
G0 F6000 X93.145 Y68.537
G1 F1200 X116.139 Y91.532 E504.50427
G0 F6000 X116.829 Y91.373
G1 F1200 X93.616 Y68.16 E507.77987
G0 F6000 X94.089 Y67.784
G1 F1200 X117.52 Y91.216 E511.08631
G0 F6000 X118.122 Y90.969
G1 F1200 X94.56 Y67.407 E514.41117
G0 F6000 X95.033 Y67.031
G1 F1200 X118.397 Y90.396 E517.70815
G0 F6000 X118.673 Y89.823
G1 F1200 X95.504 Y66.654 E520.97754
G0 F6000 X95.976 Y66.277
G1 F1200 X118.949 Y89.251 E524.21935
G0 F6000 X119.225 Y88.678
G1 F1200 X96.448 Y65.901 E527.43343
