;FLAVOR:Marlin
;TIME:1615
;Filament used: 2.38874m
;Layer height: 0.3
;MINX:52.834
;MINY:89.799
;MINZ:0.3
;MAXX:182.169
;MAXY:145.2
;MAXZ:6.3
;Generated with Cura_SteamEngine 4.8.0
M140 S65
M105
M190 S65
M104 S240
M105
M109 S240
M82 ;absolute extrusion mode
; Ender 3 Custom Start G-code
G92 E0 ; Reset Extruder
G28 ; Home all axes
G1 Z2.0 F3000 ; Move Z Axis up little to prevent scratching of Heat Bed
G1 X0.1 Y20 Z0.3 F5000.0 ; Move to start position
G1 X0.1 Y200.0 Z0.3 F1500.0 E15 ; Draw the first line
G1 X0.4 Y200.0 Z0.3 F5000.0 ; Move to side a little
G1 X0.4 Y20 Z0.3 F1500.0 E30 ; Draw the second line
G92 E0 ; Reset Extruder
G1 Z2.0 F3000 ; Move Z Axis up little to prevent scratching of Heat Bed
G1 X5 Y20 Z0.3 F5000.0 ; Move over to prevent blob squish
G92 E0
G92 E0
G1 F6000 E-2
;LAYER_COUNT:21
;LAYER:0
M107
G0 X64.884 Y94.644 Z0.3
;TYPE:SKIRT
G1 F6000 E0
G1 F1200 X65.207 Y94.424 E0.0234
G1 X65.442 Y94.272 E0.04015
G1 X66.025 Y93.904 E0.08143
G1 X66.416 Y93.667 E0.1088
G1 X66.665 Y93.522 E0.12605
G1 X67.331 Y93.148 E0.17178
G1 X67.792 Y92.903 E0.20303
G1 X68.366 Y92.615 E0.24148
G1 X68.626 Y92.489 E0.25878
G1 X68.875 Y92.372 E0.27525
G1 X69.166 Y92.241 E0.29436
G1 X69.825 Y91.954 E0.33739
G1 X70.294 Y91.762 E0.36773
G1 X70.942 Y91.514 E0.40927
G1 X71.354 Y91.363 E0.43554
G1 X71.688 Y91.25 E0.45665
G1 X72.344 Y91.038 E0.49792
G1 X72.668 Y90.938 E0.51822
G1 X72.932 Y90.863 E0.53465
G1 X73.604 Y90.68 E0.57635
G1 X74.016 Y90.575 E0.6018
G1 X74.295 Y90.511 E0.61894
G1 X75.074 Y90.342 E0.66666
G1 X75.638 Y90.234 E0.70104
G1 X76.413 Y90.107 E0.74806
G1 X76.911 Y90.037 E0.77816
G1 X77.614 Y89.954 E0.82054
G1 X77.909 Y89.923 E0.8383
G1 X78.15 Y89.901 E0.85279
G1 X78.453 Y89.878 E0.87098
G1 X79.141 Y89.834 E0.91226
G1 X79.65 Y89.813 E0.94275
G1 X80.302 Y89.801 E0.9818
G1 X80.584 Y89.799 E0.99868
G1 X80.88 Y89.801 E1.0164
G1 X81.208 Y89.808 E1.03604
G1 X81.928 Y89.834 E1.07917
G1 X82.442 Y89.865 E1.11
G1 X83.184 Y89.926 E1.15457
G1 X83.569 Y89.964 E1.17774
G1 X83.855 Y89.998 E1.19498
G1 X84.564 Y90.093 E1.23781
G1 X84.886 Y90.141 E1.2573
G1 X85.206 Y90.195 E1.27672
G1 X86.053 Y90.351 E1.32829
G1 X88.579 Y90.78 E1.48168
G1 X91.081 Y91.132 E1.63294
G1 X93.592 Y91.412 E1.7842
G1 X96.085 Y91.62 E1.93397
G1 X98.574 Y91.756 E2.08321
G1 X101.096 Y91.823 E2.23425
G1 X103.608 Y91.818 E2.38464
G1 X106.117 Y91.743 E2.53492
G1 X108.641 Y91.595 E2.68628
G1 X111.11 Y91.382 E2.83465
G1 X113.652 Y91.088 E2.98785
G1 X116.681 Y90.658 E3.17101
G1 X116.993 Y90.618 E3.18984
G1 X117.423 Y90.573 E3.21572
G1 X118.156 Y90.508 E3.25978
G1 X118.697 Y90.473 E3.29223
G1 X119.372 Y90.446 E3.33268
G1 X119.638 Y90.438 E3.34861
G1 X119.823 Y90.435 E3.35969
G1 X120.131 Y90.435 E3.37813
G1 X120.843 Y90.443 E3.42075
G1 X121.373 Y90.461 E3.4525
G1 X122.055 Y90.501 E3.4934
G1 X122.506 Y90.535 E3.52048
G1 X122.812 Y90.564 E3.53888
G1 X123.434 Y90.632 E3.57634
G1 X123.851 Y90.685 E3.60151
G1 X125.175 Y90.894 E3.68175
G1 X127.283 Y91.252 E3.80976
G1 X129.775 Y91.605 E3.96044
G1 X132.252 Y91.883 E4.10967
G1 X134.772 Y92.095 E4.26107
G1 X137.281 Y92.235 E4.41151
G1 X139.784 Y92.302 E4.56142
G1 X142.303 Y92.299 E4.71223
G1 X144.816 Y92.225 E4.86274
G1 X147.283 Y92.083 E5.01068
G1 X149.84 Y91.862 E5.16433
G1 X152.315 Y91.579 E5.31347
G1 X154.027 Y91.339 E5.41697
G1 X154.433 Y91.289 E5.44146
G1 X155.01 Y91.235 E5.47615
G1 X155.817 Y91.183 E5.52457
G1 X157.102 Y91.115 E5.60161
G1 X157.846 Y91.086 E5.64618
G1 X158.921 Y91.096 E5.71054
G1 X159.444 Y91.137 E5.74195
G1 X160.21 Y91.216 E5.78805
G1 X161.641 Y91.384 E5.87431
G1 X162.293 Y91.47 E5.91368
G1 X163.225 Y91.633 E5.97033
G1 X163.8 Y91.775 E6.00579
G1 X164.586 Y91.993 E6.05462
G1 X165.953 Y92.393 E6.13989
G1 X166.608 Y92.596 E6.18095
G1 X167.499 Y92.914 E6.23758
G1 X168.049 Y93.155 E6.27353
G1 X168.864 Y93.538 E6.32745
G1 X169.896 Y94.041 E6.39618
G1 X170.645 Y94.419 E6.44641
G1 X171.576 Y94.947 E6.51048
G1 X171.644 Y94.99 E6.5153
G1 X172.062 Y95.268 E6.54535
G1 X172.641 Y95.672 E6.58762
G1 X173.624 Y96.376 E6.66001
G1 X174.33 Y96.896 E6.7125
G1 X175.068 Y97.489 E6.76918
G1 X175.535 Y97.922 E6.80731
G1 X176.094 Y98.473 E6.8543
G1 X177.089 Y99.478 E6.93897
G1 X177.564 Y99.972 E6.98
G1 X178.191 Y100.681 E7.03666
G1 X178.576 Y101.185 E7.07463
G1 X179.056 Y101.852 E7.12383
G1 X179.797 Y102.91 E7.20116
G1 X180.213 Y103.52 E7.24536
G1 X180.713 Y104.323 E7.30199
G1 X181.143 Y105.166 E7.35865
G1 X181.5 Y106.043 E7.41534
G1 X181.782 Y106.946 E7.47197
G1 X181.987 Y107.87 E7.52864
G1 X182.113 Y108.808 E7.5853
G1 X182.155 Y109.502 E7.62692
G1 X182.166 Y109.934 E7.65279
G1 X182.169 Y110.235 E7.67081
G1 X182.168 Y124.598 E8.5307
G1 X182.158 Y125.324 E8.57417
G1 X182.105 Y126.269 E8.63083
G1 X181.972 Y127.206 E8.68749
G1 X181.761 Y128.129 E8.74418
G1 X181.473 Y129.03 E8.80081
G1 X181.109 Y129.904 E8.85749
G1 X180.674 Y130.744 E8.91412
G1 X180.347 Y131.277 E8.95156
G1 X180.226 Y131.463 E8.96484
G1 X180.068 Y131.699 E8.98184
G1 X179.848 Y132.019 E9.00509
G1 X178.972 Y133.265 E9.09628
G1 X178.559 Y133.836 E9.13847
G1 X177.972 Y134.579 E9.19516
G1 X177.553 Y135.039 E9.23241
G1 X176.977 Y135.636 E9.28207
G1 X176.031 Y136.59 E9.36251
G1 X175.529 Y137.083 E9.40463
G1 X174.826 Y137.717 E9.46131
G1 X174.335 Y138.101 E9.49862
G1 X173.675 Y138.587 E9.54769
G1 X172.549 Y139.392 E9.63056
G1 X172.003 Y139.772 E9.67039
G1 X171.204 Y140.279 E9.72704
G1 X170.669 Y140.569 E9.76347
G1 X170.087 Y140.864 E9.80253
G1 X168.827 Y141.479 E9.88647
G1 X168.051 Y141.845 E9.93784
G1 X167.179 Y142.211 E9.99446
G1 X166.578 Y142.414 E10.03244
G1 X165.78 Y142.659 E10.08241
G1 X164.618 Y142.998 E10.15488
G1 X163.804 Y143.223 E10.20544
G1 X162.882 Y143.436 E10.26209
G1 X162.277 Y143.532 E10.29876
G1 X161.45 Y143.639 E10.34869
G1 X160.264 Y143.778 E10.42018
G1 X159.387 Y143.867 E10.47295
G1 X158.442 Y143.922 E10.52962
G1 X157.827 Y143.914 E10.56645
G1 X156.965 Y143.879 E10.61809
G1 X155.687 Y143.809 E10.69472
G1 X154.98 Y143.762 E10.73714
G1 X154.337 Y143.701 E10.77581
G1 X153.735 Y143.625 E10.81214
G1 X151.97 Y143.378 E10.91883
G1 X149.473 Y143.1 E11.06925
G1 X146.982 Y142.895 E11.21888
G1 X144.454 Y142.759 E11.37045
G1 X141.969 Y142.694 E11.51927
G1 X139.457 Y142.701 E11.66966
G1 X136.909 Y142.779 E11.82228
G1 X134.439 Y142.925 E11.97041
G1 X131.941 Y143.144 E12.12054
G1 X129.444 Y143.435 E12.27104
G1 X126.917 Y143.8 E12.42389
G1 X124.926 Y144.141 E12.54483
G1 X124.706 Y144.181 E12.55822
G1 X124.388 Y144.234 E12.57752
G1 X123.933 Y144.301 E12.60505
G1 X123.243 Y144.39 E12.6467
G1 X122.722 Y144.445 E12.67807
G1 X122.024 Y144.502 E12.71999
G1 X121.605 Y144.529 E12.74513
G1 X121.306 Y144.542 E12.76305
G1 X120.605 Y144.563 E12.80503
G1 X120.076 Y144.566 E12.8367
G1 X119.325 Y144.553 E12.88167
G1 X118.999 Y144.543 E12.9012
G1 X118.603 Y144.521 E12.92494
G1 X117.879 Y144.47 E12.96839
G1 X117.342 Y144.419 E13.00069
G1 X116.628 Y144.334 E13.04374
G1 X116.352 Y144.298 E13.0604
G1 X115.368 Y144.156 E13.11992
G1 X113.433 Y143.886 E13.23689
G1 X110.885 Y143.598 E13.3904
G1 X108.403 Y143.391 E13.53951
G1 X105.886 Y143.251 E13.69043
G1 X103.374 Y143.182 E13.84088
G1 X100.857 Y143.185 E13.99157
G1 X98.354 Y143.257 E14.14148
G1 X95.878 Y143.4 E14.28996
G1 X93.331 Y143.62 E14.44301
G1 X90.842 Y143.905 E14.593
G1 X88.357 Y144.262 E14.7433
G1 X86.455 Y144.583 E14.85878
G1 X85.385 Y144.775 E14.92386
G1 X85.119 Y144.82 E14.94001
G1 X84.442 Y144.925 E14.98103
G1 X84.057 Y144.978 E15.00429
G1 X83.786 Y145.01 E15.02063
G1 X83.081 Y145.084 E15.06307
G1 X82.789 Y145.111 E15.08063
G1 X82.598 Y145.126 E15.0921
G1 X82.318 Y145.144 E15.10889
G1 X81.644 Y145.18 E15.1493
G1 X81.106 Y145.196 E15.18153
G1 X80.342 Y145.2 E15.22727
G1 X79.916 Y145.196 E15.25277
G1 X79.571 Y145.185 E15.27344
G1 X78.907 Y145.154 E15.31323
G1 X78.389 Y145.118 E15.34432
G1 X77.585 Y145.043 E15.39266
G1 X77.191 Y145 E15.41639
G1 X76.852 Y144.955 E15.43686
G1 X76.225 Y144.863 E15.4748
G1 X75.976 Y144.824 E15.48989
G1 X75.764 Y144.788 E15.50276
G1 X75.471 Y144.734 E15.5206
G1 X74.797 Y144.601 E15.56173
G1 X74.273 Y144.485 E15.59386
G1 X73.542 Y144.304 E15.63895
G1 X73.108 Y144.188 E15.66584
G1 X72.834 Y144.109 E15.68291
G1 X72.207 Y143.92 E15.72212
G1 X71.789 Y143.786 E15.7484
G1 X71.564 Y143.709 E15.76264
G1 X70.878 Y143.464 E15.80625
G1 X70.459 Y143.305 E15.83308
G1 X70.216 Y143.207 E15.84876
G1 X69.499 Y142.908 E15.89527
G1 X69.025 Y142.697 E15.92633
G1 X68.424 Y142.413 E15.96613
G1 X68.133 Y142.271 E15.98551
G1 X67.956 Y142.181 E15.9974
G1 X67.718 Y142.056 E16.0135
G1 X67.026 Y141.683 E16.06056
G1 X66.566 Y141.421 E16.09225
G1 X65.981 Y141.069 E16.13313
G1 X65.62 Y140.844 E16.15859
G1 X65.358 Y140.673 E16.17733
G1 X64.787 Y140.289 E16.21852
G1 X64.423 Y140.034 E16.24513
G1 X64.234 Y139.896 E16.25914
G1 X63.659 Y139.466 E16.30212
G1 X63.392 Y139.261 E16.32228
G1 X63.123 Y139.045 E16.34293
G1 X62.587 Y138.601 E16.3846
G1 X62.192 Y138.258 E16.41592
G1 X61.634 Y137.75 E16.4611
G1 X61.412 Y137.542 E16.47931
G1 X61.257 Y137.393 E16.49218
G1 X61.046 Y137.185 E16.50992
G1 X60.535 Y136.667 E16.55348
G1 X60.171 Y136.28 E16.58529
G1 X59.692 Y135.746 E16.62824
G1 X59.476 Y135.498 E16.64792
G1 X59.233 Y135.207 E16.67062
G1 X58.781 Y134.649 E16.71361
G1 X58.566 Y134.376 E16.73442
G1 X58.382 Y134.131 E16.75276
G1 X57.951 Y133.541 E16.7965
G1 X57.728 Y133.225 E16.81966
G1 X57.588 Y133.017 E16.83467
G1 X57.175 Y132.389 E16.87967
G1 X56.94 Y132.016 E16.90606
G1 X56.834 Y131.84 E16.91836
G1 X56.488 Y131.252 E16.95921
G1 X56.296 Y130.913 E16.98253
G1 X56.171 Y130.68 E16.99836
G1 X55.841 Y130.048 E17.04105
G1 X55.658 Y129.685 E17.06538
G1 X55.519 Y129.396 E17.08458
G1 X55.236 Y128.783 E17.125
G1 X55.048 Y128.354 E17.15304
G1 X54.724 Y127.554 E17.20472
G1 X54.612 Y127.265 E17.22327
G1 X54.461 Y126.85 E17.24971
G1 X54.238 Y126.205 E17.29057
G1 X54.109 Y125.81 E17.31545
G1 X54.041 Y125.583 E17.32963
G1 X53.819 Y124.818 E17.37732
G1 X53.679 Y124.29 E17.41003
G1 X53.51 Y123.58 E17.45372
G1 X53.432 Y123.228 E17.4753
G1 X53.366 Y122.904 E17.4951
G1 X53.254 Y122.304 E17.53164
G1 X53.168 Y121.789 E17.5629
G1 X53.122 Y121.478 E17.58172
G1 X53.025 Y120.746 E17.62593
G1 X52.969 Y120.23 E17.657
G1 X52.912 Y119.564 E17.69702
G1 X52.892 Y119.3 E17.71287
G1 X52.88 Y119.106 E17.72451
G1 X52.865 Y118.791 E17.74339
G1 X52.839 Y118.016 E17.78981
G1 X52.834 Y117.473 E17.82232
G1 X52.845 Y116.735 E17.86651
G1 X52.853 Y116.442 E17.88406
G1 X52.87 Y116.096 E17.9048
G1 X52.914 Y115.408 E17.94607
G1 X52.943 Y115.037 E17.96835
G1 X52.978 Y114.685 E17.98953
G1 X53.059 Y113.982 E18.03189
G1 X53.117 Y113.547 E18.05817
G1 X53.148 Y113.346 E18.07034
G1 X53.261 Y112.658 E18.11208
G1 X53.32 Y112.328 E18.13215
G1 X53.388 Y111.992 E18.15268
G1 X53.528 Y111.342 E18.19248
G1 X53.596 Y111.047 E18.21061
G1 X53.711 Y110.587 E18.23899
G1 X53.886 Y109.937 E18.27929
G1 X54.032 Y109.44 E18.31031
G1 X54.263 Y108.717 E18.35575
G1 X54.367 Y108.408 E18.37526
G1 X54.525 Y107.969 E18.4032
G1 X54.767 Y107.332 E18.44399
G1 X54.88 Y107.047 E18.46235
G1 X55.011 Y106.734 E18.48266
G1 X55.287 Y106.104 E18.52384
G1 X55.465 Y105.715 E18.54945
G1 X55.596 Y105.445 E18.56742
G1 X55.957 Y104.724 E18.61569
G1 X56.197 Y104.271 E18.64638
G1 X56.518 Y103.697 E18.68575
G1 X56.674 Y103.427 E18.70442
G1 X56.898 Y103.056 E18.73037
G1 X57.231 Y102.524 E18.76794
G1 X57.379 Y102.293 E18.78437
G1 X57.486 Y102.131 E18.79599
G1 X57.657 Y101.88 E18.81417
G1 X58.04 Y101.333 E18.85415
G1 X58.298 Y100.979 E18.88038
G1 X58.458 Y100.768 E18.89623
G1 X58.94 Y100.15 E18.94315
G1 X59.277 Y99.739 E18.97497
G1 X59.741 Y99.199 E19.01759
G1 X60.024 Y98.881 E19.04308
G1 X60.227 Y98.661 E19.061
G1 X60.847 Y98.011 E19.11478
G1 X61.16 Y97.702 E19.14111
G1 X61.598 Y97.284 E19.17736
G1 X61.81 Y97.086 E19.19473
G1 X62.023 Y96.893 E19.21193
G1 X62.235 Y96.706 E19.22886
G1 X62.746 Y96.266 E19.26923
G1 X63.14 Y95.942 E19.29977
G1 X63.753 Y95.461 E19.34642
G1 X64.023 Y95.255 E19.36675
G1 X64.322 Y95.039 E19.38883
G1 X64.884 Y94.644 E19.42996
G0 F6000 X65.16 Y95.037
G1 F1200 X65.474 Y94.823 E19.45271
G1 X65.698 Y94.678 E19.46868
G1 X66.281 Y94.31 E19.50996
G1 X66.515 Y94.166 E19.5264
G1 X66.661 Y94.079 E19.53658
G1 X66.9 Y93.941 E19.5531
G1 X67.566 Y93.567 E19.59883
G1 X68.008 Y93.332 E19.6288
G1 X68.582 Y93.044 E19.66725
G1 X68.83 Y92.924 E19.68374
G1 X69.079 Y92.807 E19.70021
G1 X69.358 Y92.681 E19.71854
G1 X70.017 Y92.394 E19.76157
G1 X70.465 Y92.21 E19.79057
G1 X71.113 Y91.962 E19.83211
G1 X71.516 Y91.815 E19.85779
G1 X71.835 Y91.706 E19.87797
G1 X72.491 Y91.494 E19.91924
G1 X72.805 Y91.398 E19.9389
G1 X73.058 Y91.326 E19.95465
G1 X73.73 Y91.143 E19.99635
G1 X74.13 Y91.041 E20.02106
G1 X74.397 Y90.98 E20.03746
G1 X75.176 Y90.811 E20.08518
G1 X75.715 Y90.708 E20.11803
G1 X76.49 Y90.581 E20.16505
G1 X76.967 Y90.514 E20.19389
G1 X77.67 Y90.431 E20.23627
G1 X77.952 Y90.401 E20.25324
G1 X78.193 Y90.379 E20.26773
G1 X78.484 Y90.357 E20.2852
G1 X79.172 Y90.313 E20.32648
G1 X79.659 Y90.293 E20.35566
G1 X80.311 Y90.281 E20.3947
G1 X80.58 Y90.279 E20.4108
G1 X80.876 Y90.281 E20.42852
G1 X81.191 Y90.288 E20.44739
G1 X81.911 Y90.314 E20.49052
G1 X82.402 Y90.343 E20.51997
G1 X83.144 Y90.404 E20.56454
G1 X83.517 Y90.441 E20.58698
G1 X83.792 Y90.474 E20.60356
G1 X84.501 Y90.569 E20.64639
G1 X84.812 Y90.615 E20.66521
G1 X85.119 Y90.667 E20.68385
G1 X85.953 Y90.821 E20.73462
G1 X88.54 Y91.26 E20.89172
G1 X90.994 Y91.605 E21.04008
G1 X93.536 Y91.889 E21.19321
G1 X96.053 Y92.099 E21.34442
G1 X98.572 Y92.236 E21.49545
G1 X101.084 Y92.303 E21.6459
G1 X103.623 Y92.298 E21.7979
G1 X106.127 Y92.223 E21.94788
G1 X108.675 Y92.074 E22.10068
G1 X111.17 Y91.858 E22.25061
G1 X113.695 Y91.566 E22.40279
G1 X116.748 Y91.133 E22.5874
G1 X117.047 Y91.095 E22.60544
G1 X117.465 Y91.051 E22.6306
G1 X118.198 Y90.986 E22.67466
G1 X118.717 Y90.953 E22.70579
G1 X119.392 Y90.926 E22.74624
G1 X119.646 Y90.918 E22.76145
G1 X119.831 Y90.915 E22.77253
G1 X120.125 Y90.915 E22.79013
G1 X120.837 Y90.923 E22.83276
G1 X121.345 Y90.94 E22.86319
G1 X122.027 Y90.98 E22.90409
G1 X122.467 Y91.014 E22.93051
G1 X122.76 Y91.041 E22.94813
G1 X123.382 Y91.109 E22.98559
G1 X123.784 Y91.161 E23.00985
G1 X123.984 Y91.191 E23.02196
G1 X125.094 Y91.368 E23.08925
G1 X127.203 Y91.726 E23.21732
G1 X129.689 Y92.078 E23.36764
G1 X132.234 Y92.364 E23.52096
G1 X134.739 Y92.575 E23.67146
G1 X137.241 Y92.714 E23.82148
G1 X139.772 Y92.782 E23.97307
G1 X142.317 Y92.779 E24.12543
G1 X144.821 Y92.706 E24.2754
G1 X147.355 Y92.559 E24.42737
G1 X149.864 Y92.343 E24.57813
G1 X152.392 Y92.053 E24.73047
G1 X154.093 Y91.815 E24.8333
G1 X154.489 Y91.765 E24.85719
G1 X155.041 Y91.714 E24.89038
G1 X155.843 Y91.662 E24.9385
G1 X157.12 Y91.595 E25.01505
G1 X157.864 Y91.566 E25.05963
G1 X158.894 Y91.575 E25.1213
G1 X159.396 Y91.614 E25.15144
G1 X159.989 Y91.674 E25.18712
G1 X161.578 Y91.86 E25.2829
G1 X162.23 Y91.946 E25.32228
G1 X163.142 Y92.107 E25.37772
G1 X163.672 Y92.238 E25.41041
G1 X164.452 Y92.454 E25.45886
G1 X165.81 Y92.851 E25.54356
G1 X166.465 Y93.054 E25.58462
G1 X167.337 Y93.367 E25.64008
G1 X167.845 Y93.589 E25.67328
G1 X168.654 Y93.97 E25.72681
G1 X169.828 Y94.543 E25.80502
G1 X170.429 Y94.847 E25.84534
G1 X171.319 Y95.353 E25.90664
G1 X171.788 Y95.661 E25.94023
G1 X172.362 Y96.063 E25.98218
G1 X173.464 Y96.853 E26.06336
G1 X174.046 Y97.282 E26.10664
G1 X174.766 Y97.863 E26.16203
G1 X175.198 Y98.264 E26.19732
G1 X175.753 Y98.811 E26.24397
G1 X176.743 Y99.811 E26.32822
G1 X177.218 Y100.305 E26.36925
G1 X177.831 Y100.999 E26.42468
G1 X178.186 Y101.465 E26.45975
G1 X178.663 Y102.127 E26.5086
G1 X179.401 Y103.18 E26.58559
G1 X179.817 Y103.79 E26.62979
G1 X180.305 Y104.577 E26.68523
G1 X180.723 Y105.403 E26.74065
G1 X181.069 Y106.262 E26.79609
G1 X181.339 Y107.147 E26.85149
G1 X181.532 Y108.053 E26.90694
G1 X181.646 Y108.972 E26.96238
G1 X181.675 Y109.516 E26.995
G1 X181.686 Y109.94 E27.02039
G1 X181.689 Y110.235 E27.03805
G1 X181.688 Y124.592 E27.89758
G1 X181.678 Y125.318 E27.94105
G1 X181.625 Y126.242 E27.99646
G1 X181.493 Y127.158 E28.05187
G1 X181.282 Y128.06 E28.10733
G1 X180.994 Y128.94 E28.16276
G1 X180.632 Y129.792 E28.21818
G1 X180.197 Y130.609 E28.27359
