; generated by PrusaSlicer 2.8.1+MacOS-arm64 on 2024-11-14 at 16:45:06 UTC

; 

; external perimeters extrusion width = 0.63mm
; perimeters extrusion width = 0.66mm
; infill extrusion width = 0.66mm
; solid infill extrusion width = 0.66mm
; top infill extrusion width = 0.60mm
; first layer extrusion width = 0.63mm

M201 X500 Y500 Z100 E5000 ; sets maximum accelerations, mm/sec^2
M203 X500 Y500 Z10 E60 ; sets maximum feedrates, mm / sec
M204 S500 T1000 ; sets acceleration (S) and retract acceleration (R), mm/sec^2
M205 X8.00 Y8.00 Z0.40 E5.00 ; sets the jerk limits, mm/sec
M205 S0 T0 ; sets the minimum extruding and travel feed rate, mm/sec

; printing object under_desk_cable_clip_v2.stl id:0 copy 0
; stop printing object under_desk_cable_clip_v2.stl id:0 copy 0

;TYPE:Custom
G90 ; use absolute coordinates
M83 ; extruder relative mode
M104 S150 ; set temporary nozzle temp to prevent oozing during homing
M140 S60 ; set final bed temp
G4 S30 ; allow partial nozzle warmup
G28 ; home all axis
G1 Z50 F240
G1 X2.0 Y10 F3000
M104 S205 ; set final nozzle temp
M190 S60 ; wait for bed temp to stabilize
M109 S205 ; wait for nozzle temp to stabilize
G1 Z0.28 F240
G92 E0
G1 X2.0 Y140 E10 F1500 ; prime the nozzle
G1 X2.3 Y140 F5000
G92 E0
G1 X2.3 Y10 E10 F1200 ; prime the nozzle
G92 E0
G21 ; set units to millimeters
G90 ; use absolute coordinates
M83 ; use relative distances for extrusion
; Filament gcode
M107
;LAYER_CHANGE
;Z:0.3
;HEIGHT:0.3
G1 E-5 F3600
G1 Z.3 F9000
G1 X62.006 Y100.467
G1 Z.3
G1 E5 F2400
M204 S500
;TYPE:Skirt/Brim
;WIDTH:0.63
G1 F1200
G1 X62.725 Y100.132 E.05596
G1 X63.382 Y99.954 E.04802
G1 X64.217 Y99.882 E.05913
G1 X166.688 Y103.508 E7.23356
G1 X168.614 Y103.699 E.13654
G1 X169.941 Y103.992 E.09587
G1 X171.238 Y104.417 E.09629
G1 X172.487 Y104.968 E.09631
G1 X173.681 Y105.642 E.09673
G1 X174.797 Y106.428 E.0963
G1 X175.829 Y107.32 E.09623
G1 X176.77 Y108.311 E.09641
G1 X177.607 Y109.389 E.09628
G1 X178.334 Y110.544 E.09628
G1 X178.944 Y111.766 E.09635
G1 X179.429 Y113.041 E.09624
G1 X179.787 Y114.359 E.09635
G1 X180.012 Y115.705 E.09627
G1 X180.104 Y117.065 E.09616
G1 X180.06 Y118.432 E.09649
G1 X179.882 Y119.785 E.09627
G1 X179.314 Y121.919 E.15579
G1 X178.49 Y123.792 E.14436
G1 X177.879 Y124.829 E.08491
G1 X177.08 Y125.936 E.09631
G1 X175.687 Y127.435 E.14436
G1 X173.953 Y128.802 E.15577
G1 X172.923 Y129.424 E.08489
G1 X171.696 Y130.019 E.0962
G1 X169.757 Y130.677 E.14445
G1 X167.581 Y131.058 E.15585
G1 X166.299 Y131.118 E.09054
G1 X64.699 Y131.118 E7.16759
G1 X62.56 Y130.951 E.15136
G1 X61.213 Y130.67 E.09707
G1 X59.907 Y130.259 E.09659
G1 X58.782 Y129.785 E.08612
G1 X57.575 Y129.137 E.09665
G1 X55.761 Y127.834 E.15757
G1 X54.758 Y126.892 E.09707
G1 X53.853 Y125.855 E.0971
G1 X53.145 Y124.87 E.08558
G1 X52.45 Y123.682 E.0971
G1 X51.876 Y122.431 E.0971
G1 X51.431 Y121.13 E.097
G1 X50.989 Y118.946 E.1572
G1 X50.895 Y117.581 E.09652
G1 X50.924 Y116.36 E.08616
G1 X51.255 Y114.166 E.15653
G1 X51.876 Y112.19 E.14612
G1 X52.783 Y110.336 E.14561
G1 X53.955 Y108.638 E.14555
G1 X54.801 Y107.683 E.09001
G1 X61.441 Y100.862 E.67155
G1 X61.932 Y100.519 E.04225
G1 E-3.5 F3600
;WIPE_START
G1 F7200
G1 X62.006 Y100.467 E-.04296
G1 X62.725 Y100.132 E-.37678
G1 X63.382 Y99.954 E-.32333
G1 X64.217 Y99.882 E-.3981
G1 X64.972 Y99.909 E-.35883
;WIPE_END
; printing object under_desk_cable_clip_v2.stl id:0 copy 0
G1 X64.164 Y104.222 F9000
G1 E5 F2400
;TYPE:Perimeter
;WIDTH:0.677367
G1 F1200
G1 X64.226 Y104.594 E.02883
G1 X64.365 Y104.834 E.0212
;WIDTH:0.681699
G1 X64.636 Y105.057 E.02702
G1 X65.017 Y105.148 E.03016
;WIDTH:0.668759
G1 X166.534 Y107.788 E7.65508
G1 X167.443 Y107.855 E.06871
;WIDTH:0.678971
G1 X168.454 Y108.034 E.0787
;WIDTH:0.668387
G1 X169.278 Y108.265 E.06447
;WIDTH:0.678967
G1 X170.235 Y108.638 E.07873
;WIDTH:0.668383
G1 X170.998 Y109.027 E.06452
;WIDTH:0.689295
G1 X171.433 Y109.3 E.04003
G1 X172.154 Y109.8 E.06839
;WIDTH:0.678967
G1 X172.944 Y110.488 E.0803
;WIDTH:0.668383
G1 X173.53 Y111.112 E.06449
;WIDTH:0.678961
G1 X174.156 Y111.927 E.07877
;WIDTH:0.668385
G1 X174.607 Y112.655 E.06452
;WIDTH:0.678973
G1 X175.06 Y113.576 E.07868
;WIDTH:0.668389
G1 X175.36 Y114.378 E.06451
;WIDTH:0.678967
G1 X175.623 Y115.371 E.07874
;WIDTH:0.668389
G1 X175.76 Y116.216 E.06449
;WIDTH:0.678969
G1 X175.822 Y117.241 E.07871
;WIDTH:0.668417
G1 X175.79 Y118.097 E.06453
;WIDTH:0.678969
G1 X175.65 Y119.114 E.07869
;WIDTH:0.66838
G1 X175.45 Y119.947 E.06454
;WIDTH:0.678971
G1 X175.113 Y120.917 E.07872
;WIDTH:0.66838
G1 X174.75 Y121.692 E.06447
;WIDTH:0.667189
G1 X174.279 Y122.507 E.07077
;WIDTH:0.689295
G1 X173.98 Y122.925 E.04006
G1 X173.437 Y123.614 E.06838
;WIDTH:0.678964
G1 X172.702 Y124.361 E.08033
;WIDTH:0.668387
G1 X172.043 Y124.907 E.06447
;WIDTH:0.678969
G1 X171.191 Y125.482 E.07879
;WIDTH:0.668385
G1 X170.438 Y125.888 E.06445
;WIDTH:0.689297
G1 X169.965 Y126.09 E.04009
G1 X169.144 Y126.398 E.06835
;WIDTH:0.678963
G1 X168.128 Y126.657 E.08037
;WIDTH:0.668389
G1 X167.282 Y126.783 E.06444
;WIDTH:0.678951
G1 X166.286 Y126.835 E.07645
;WIDTH:0.668763
G1 X64.711 Y126.835 E7.65691
G1 X63.793 Y126.791 E.06928
;WIDTH:0.679137
G1 X62.769 Y126.637 E.0794
;WIDTH:0.66838
G1 X61.933 Y126.424 E.06499
;WIDTH:0.679137
G1 X60.96 Y126.069 E.07942
;WIDTH:0.668383
G1 X60.182 Y125.695 E.06503
;WIDTH:0.689643
G1 X59.738 Y125.429 E.04036
G1 X59 Y124.94 E.06904
;WIDTH:0.679141
G1 X58.189 Y124.262 E.08105
;WIDTH:0.668379
G1 X57.587 Y123.645 E.06494
;WIDTH:0.679139
G1 X56.941 Y122.835 E.07944
;WIDTH:0.668385
G1 X56.472 Y122.11 E.06505
;WIDTH:0.689645
G1 X56.232 Y121.651 E.04039
G1 X55.858 Y120.849 E.06901
;WIDTH:0.679143
G1 X55.514 Y119.827 E.08268
;WIDTH:0.689659
G1 X55.329 Y118.962 E.06899
G1 X55.243 Y118.451 E.04041
;WIDTH:0.668393
G1 X55.179 Y117.591 E.06497
;WIDTH:0.679139
G1 X55.205 Y116.555 E.07946
;WIDTH:0.668379
G1 X55.312 Y115.699 E.06499
;WIDTH:0.689465
G1 X55.422 Y115.197 E.04007
G1 X55.651 Y114.339 E.06923
;WIDTH:0.679139
G1 X56.036 Y113.354 E.08109
;WIDTH:0.668385
G1 X56.429 Y112.586 E.06499
;WIDTH:0.679047
G1 X56.986 Y111.723 E.07875
;WIDTH:0.668775
G1 X57.529 Y111.041 E.06572
;WIDTH:0.679137
G1 X58.269 Y110.285 E.08111
;WIDTH:0.689661
G1 X58.954 Y109.726 E.06895
G1 X59.37 Y109.417 E.04041
;WIDTH:0.668395
G1 X60.106 Y108.967 E.06499
;WIDTH:0.679141
G1 X61.039 Y108.518 E.07939
;WIDTH:0.668385
G1 X61.85 Y108.222 E.06504
;WIDTH:0.689641
G1 X62.351 Y108.09 E.0404
G1 X63.216 Y107.903 E.06902
;WIDTH:0.679141
G1 X64.252 Y107.796 E.07986
;WIDTH:0.668157
G1 X64.892 Y107.789 E.0482
;WIDTH:0.668993
G1 X65.159 Y107.822 E.02029
;WIDTH:0.691383
G1 X65.462 Y107.97 E.02637
G1 X65.651 Y108.187 E.0225
;WIDTH:0.687987
G1 X65.761 Y108.494 E.02536
;WIDTH:0.669579
G1 X65.785 Y108.714 E.0167
G1 X65.785 Y108.714 F9000
G1 X65.162 Y108.562
;TYPE:External perimeter
;WIDTH:0.63
G1 F1200
G1 X65.086 Y108.433 E.01056
G1 X64.902 Y108.37 E.01372
G1 X64.239 Y108.382 E.04678
G1 X63.381 Y108.468 E.06083
G1 X62.05 Y108.772 E.09632
G1 X61.213 Y109.078 E.06287
G1 X60.411 Y109.466 E.06285
G1 X59.675 Y109.916 E.06086
G1 X58.608 Y110.767 E.09628
G1 X57.987 Y111.405 E.06281
G1 X57.428 Y112.11 E.06347
G1 X56.95 Y112.853 E.06233
G1 X56.544 Y113.646 E.06285
G1 X56.229 Y114.449 E.06085
G1 X56.117 Y114.88 E.03142
G1 X55.892 Y115.772 E.0649
G1 X55.783 Y116.656 E.06284
G1 X55.762 Y117.547 E.06287
G1 X55.827 Y118.408 E.06091
G1 X56.097 Y119.745 E.09623
G1 X56.372 Y120.563 E.06088
G1 X56.964 Y121.792 E.09624
G1 X57.448 Y122.54 E.06285
G1 X58.005 Y123.236 E.06289
G1 X58.629 Y123.873 E.06291
G1 X59.289 Y124.428 E.06084
G1 X60.436 Y125.168 E.0963
G1 X61.239 Y125.554 E.06285
G1 X62.077 Y125.857 E.06286
G1 X62.941 Y126.076 E.06288
G1 X63.823 Y126.207 E.06291
G1 X64.697 Y126.25 E.06173
G1 X166.286 Y126.25 E7.16681
G1 X167.195 Y126.205 E.06421
G1 X168.069 Y126.073 E.06236
G1 X168.899 Y125.864 E.06038
G1 X170.16 Y125.373 E.09547
G1 X170.938 Y124.952 E.06241
G1 X171.669 Y124.457 E.06228
G1 X172.349 Y123.892 E.06237
G1 X172.95 Y123.283 E.06036
G1 X173.776 Y122.211 E.09547
G1 X174.223 Y121.448 E.06238
G1 X174.593 Y120.646 E.06231
G1 X174.882 Y119.81 E.0624
G1 X175.087 Y118.951 E.0623
G1 X175.206 Y118.075 E.06237
G1 X175.238 Y117.191 E.0624
G1 X175.182 Y116.309 E.06235
G1 X175.04 Y115.437 E.06233
G1 X174.812 Y114.583 E.06236
G1 X174.501 Y113.756 E.06233
G1 X174.11 Y112.963 E.06237
G1 X173.643 Y112.213 E.06233
G1 X173.104 Y111.513 E.06233
G1 X172.498 Y110.869 E.06238
G1 X171.854 Y110.306 E.06035
G1 X170.733 Y109.548 E.09547
G1 X169.944 Y109.148 E.06241
G1 X169.121 Y108.828 E.06229
G1 X168.269 Y108.59 E.06241
G1 X167.399 Y108.439 E.06229
G1 X166.533 Y108.373 E.06127
G1 X65.002 Y105.732 E7.16514
G1 X64.492 Y105.631 E.03668
G1 X64.144 Y105.445 E.02784
G1 X63.819 Y105.096 E.03364
G1 X63.612 Y104.639 E.03539
G1 X63.584 Y104.202 E.03089
G1 X63.683 Y103.844 E.0262
G1 X63.85 Y103.681 E.01646
G1 X64.096 Y103.59 E.0185
G1 X64.435 Y103.652 E.02431
G1 X64.609 Y103.791 E.01571
G1 X64.72 Y103.991 E.01614
G1 X64.759 Y104.316 E.02309
G1 X64.854 Y104.495 E.0143
G1 X65.032 Y104.564 E.01347
G1 X166.549 Y107.203 E7.16415
G1 X167.075 Y107.231 E.03716
G1 X167.615 Y107.288 E.03831
G1 X168.507 Y107.446 E.06391
G1 X169.013 Y107.572 E.03679
G1 X169.491 Y107.718 E.03526
G1 X169.975 Y107.893 E.03631
G1 X170.449 Y108.092 E.03627
G1 X170.9 Y108.309 E.03531
G1 X171.394 Y108.58 E.03975
G1 X172.156 Y109.071 E.06395
G1 X172.556 Y109.37 E.03523
G1 X172.952 Y109.699 E.03632
G1 X173.331 Y110.047 E.0363
G1 X173.681 Y110.404 E.03527
G1 X174.041 Y110.81 E.03828
G1 X174.592 Y111.53 E.06396
G1 X174.879 Y111.965 E.03677
G1 X175.133 Y112.395 E.03523
G1 X175.372 Y112.851 E.03632
G1 X175.587 Y113.318 E.03627
G1 X175.773 Y113.782 E.03527
G1 X175.948 Y114.296 E.03831
G1 X176.179 Y115.172 E.06391
G1 X176.277 Y115.684 E.03678
G1 X176.345 Y116.18 E.03532
G1 X176.39 Y116.692 E.03626
G1 X176.408 Y117.206 E.03628
G1 X176.4 Y117.706 E.03528
G1 X176.364 Y118.248 E.03832
G1 X176.24 Y119.145 E.06388
G1 X176.133 Y119.655 E.03676
G1 X176.005 Y120.139 E.03532
G1 X175.848 Y120.629 E.0363
G1 X175.667 Y121.11 E.03626
G1 X175.466 Y121.571 E.03548
G1 X175.121 Y122.239 E.05304
G1 X174.701 Y122.93 E.05705
G1 X174.165 Y123.661 E.06395
G1 X173.841 Y124.042 E.03528
G1 X173.489 Y124.417 E.03628
G1 X173.118 Y124.773 E.03627
G1 X172.741 Y125.101 E.03525
G1 X172.313 Y125.435 E.0383
G1 X171.561 Y125.941 E.06394
G1 X171.11 Y126.202 E.03676
G1 X170.664 Y126.429 E.0353
G1 X170.195 Y126.639 E.03625
G1 X169.715 Y126.825 E.03632
G1 X169.199 Y126.994 E.03831
G1 X168.321 Y127.215 E.06387
G1 X167.808 Y127.307 E.03677
G1 X167.311 Y127.369 E.03533
G1 X166.798 Y127.408 E.0363
G1 X166.294 Y127.42 E.03557
G1 X64.711 Y127.42 E7.16639
G1 X64.18 Y127.407 E.03747
G1 X63.678 Y127.368 E.03552
G1 X63.177 Y127.305 E.03562
G1 X62.681 Y127.217 E.03554
G1 X62.19 Y127.104 E.03554
G1 X61.705 Y126.966 E.03557
G1 X61.227 Y126.805 E.03558
G1 X60.758 Y126.62 E.03557
G1 X60.299 Y126.412 E.03555
G1 X59.851 Y126.182 E.03553
G1 X59.415 Y125.929 E.03556
G1 X58.992 Y125.655 E.03555
G1 X58.583 Y125.36 E.03558
G1 X58.189 Y125.045 E.03559
G1 X57.812 Y124.711 E.03553
G1 X57.451 Y124.359 E.03557
G1 X57.109 Y123.989 E.03555
G1 X56.786 Y123.602 E.03556
G1 X56.48 Y123.197 E.03581
G1 X56.198 Y122.783 E.03534
G1 X55.936 Y122.352 E.03558
G1 X55.696 Y121.909 E.03554
G1 X55.478 Y121.455 E.03553
G1 X55.283 Y120.99 E.03557
G1 X55.111 Y120.516 E.03557
G1 X54.963 Y120.034 E.03557
G1 X54.74 Y119.051 E.07111
G1 X54.666 Y118.553 E.03552
G1 X54.616 Y118.051 E.03559
G1 X54.592 Y117.548 E.03553
G1 X54.593 Y117.044 E.03556
G1 X54.619 Y116.54 E.0356
G1 X54.67 Y116.039 E.03553
G1 X54.745 Y115.54 E.0356
G1 X54.971 Y114.558 E.07109
G1 X55.12 Y114.077 E.03552
G1 X55.293 Y113.603 E.0356
G1 X55.49 Y113.139 E.03556
G1 X55.709 Y112.685 E.03556
G1 X55.951 Y112.243 E.03555
G1 X56.214 Y111.813 E.03556
G1 X56.499 Y111.397 E.03557
G1 X56.804 Y110.996 E.03554
G1 X57.128 Y110.61 E.03555
G1 X57.472 Y110.241 E.03559
G1 X57.833 Y109.89 E.03552
G1 X58.212 Y109.556 E.03564
G1 X58.606 Y109.243 E.0355
G1 X59.016 Y108.949 E.03559
G1 X59.44 Y108.676 E.03558
G1 X59.877 Y108.425 E.03555
G1 X60.326 Y108.196 E.03556
G1 X60.785 Y107.989 E.03552
G1 X61.255 Y107.805 E.03561
G1 X61.733 Y107.646 E.03554
G1 X62.219 Y107.51 E.0356
G1 X62.71 Y107.398 E.03553
G1 X63.206 Y107.312 E.03551
G1 X63.707 Y107.25 E.03561
G1 X64.237 Y107.212 E.03749
G1 X65.104 Y107.215 E.06116
G1 X65.473 Y107.306 E.02681
G1 X65.781 Y107.467 E.02452
G1 X66.169 Y107.877 E.03982
G1 X66.34 Y108.321 E.03357
G1 X66.359 Y108.806 E.03424
G1 X66.251 Y109.061 E.01954
G1 X65.999 Y109.253 E.02235
G1 X65.695 Y109.285 E.02156
G1 X65.426 Y109.157 E.02102
G1 X65.245 Y108.924 E.02081
G1 X65.193 Y108.645 E.02002
M106 S255
;LAYER_CHANGE
;Z:0.54
;HEIGHT:0.24
;BEFORE_LAYER_CHANGE
G92 E0
;0.54


G1 E-3.5 F3600
;WIPE_START
G1 F7200
G1 X65.162 Y108.562 E-.04209
G1 X65.086 Y108.433 E-.07112
G1 X64.902 Y108.37 E-.09238
G1 X64.239 Y108.382 E-.31498
G1 X63.381 Y108.468 E-.40959
G1 X62.212 Y108.735 E-.56984
;WIPE_END
G1 Z.54 F9000
;AFTER_LAYER_CHANGE
;0.54
M104 S200 ; set temperature
; stop printing object under_desk_cable_clip_v2.stl id:0 copy 0
G1 Z.54
G1 X59.376 Y102.982
G1 E5 F2400
;TYPE:Skirt/Brim
;WIDTH:0.63
G1 X61.441 Y100.862 E.17083
G1 X62.006 Y100.467 E.03979
G1 X62.725 Y100.132 E.04579
G1 X63.382 Y99.954 E.03929
G1 X64.217 Y99.882 E.04838
G1 X166.688 Y103.508 E5.91859
G1 X168.614 Y103.699 E.11172
G1 X169.941 Y103.992 E.07844
G1 X171.238 Y104.417 E.07878
G1 X172.487 Y104.968 E.0788
G1 X173.681 Y105.642 E.07914
G1 X174.797 Y106.428 E.07879
G1 X175.829 Y107.32 E.07874
G1 X176.77 Y108.311 E.07888
G1 X177.607 Y109.389 E.07878
G1 X178.334 Y110.544 E.07878
G1 X178.944 Y111.766 E.07884
G1 X179.429 Y113.041 E.07874
G1 X179.787 Y114.359 E.07883
G1 X180.012 Y115.705 E.07877
G1 X180.104 Y117.065 E.07868
G1 X180.06 Y118.432 E.07895
G1 X179.882 Y119.785 E.07877
G1 X179.314 Y121.919 E.12747
G1 X178.49 Y123.792 E.11811
G1 X177.879 Y124.829 E.06948
G1 X177.08 Y125.936 E.0788
G1 X175.687 Y127.435 E.11812
G1 X173.953 Y128.802 E.12745
G1 X172.923 Y129.424 E.06945
G1 X171.696 Y130.019 E.07871
G1 X169.757 Y130.677 E.11819
G1 X167.581 Y131.058 E.12752
G1 X166.299 Y131.118 E.07408
G1 X64.699 Y131.118 E5.86461
G1 X62.56 Y130.951 E.12384
G1 X61.213 Y130.67 E.07943
G1 X59.907 Y130.259 E.07903
G1 X58.782 Y129.785 E.07047
G1 X57.575 Y129.137 E.07908
G1 X55.761 Y127.834 E.12892
G1 X54.758 Y126.892 E.07943
G1 X53.853 Y125.855 E.07945
G1 X53.145 Y124.87 E.07002
G1 X52.45 Y123.682 E.07945
G1 X51.876 Y122.431 E.07945
G1 X51.431 Y121.13 E.07937
G1 X50.989 Y118.946 E.12862
G1 X50.895 Y117.581 E.07898
G1 X50.924 Y116.36 E.0705
G1 X51.255 Y114.166 E.12808
G1 X51.876 Y112.19 E.11956
G1 X52.783 Y110.336 E.11914
G1 X53.955 Y108.638 E.11909
G1 X54.801 Y107.683 E.07364
G1 X59.314 Y103.047 E.37346
G1 E-3.5 F3600
;WIPE_START
G1 F7200
G1 X59.376 Y102.982 E-.04267
G1 X61.441 Y100.862 E-1.40576
G1 X61.53 Y100.8 E-.05157
;WIPE_END
; printing object under_desk_cable_clip_v2.stl id:0 copy 0
G1 X64.167 Y104.21 F9000
G1 E5 F2400
;TYPE:Perimeter
;WIDTH:0.849677
G1 F3600
G1 X64.193 Y104.372 E.01307
;WIDTH:0.878258
G1 X64.218 Y104.534 E.01352
;WIDTH:0.91186
G1 X64.394 Y104.853 E.03128
G1 X64.676 Y105.06 E.03003
;WIDTH:0.891238
G1 X64.919 Y105.135 E.02131
;WIDTH:0.861344
G1 X65.118 Y105.151 E.01613
;WIDTH:0.843008
G1 X166.534 Y107.788 E8.0122
G1 X167.437 Y107.855 E.07151
;WIDTH:0.853126
G1 X168.459 Y108.035 E.083
;WIDTH:0.842674
G1 X169.273 Y108.263 E.06673
;WIDTH:0.853124
G1 X170.262 Y108.651 E.08498
;WIDTH:0.863302
G1 X171.031 Y109.056 E.0704
G1 X171.479 Y109.318 E.04204
;WIDTH:0.842678
G1 X172.167 Y109.809 E.06673
;WIDTH:0.853122
G1 X172.948 Y110.492 E.08299
;WIDTH:0.842668
G1 X173.527 Y111.109 E.0668
;WIDTH:0.853116
G1 X174.158 Y111.932 E.08295
;WIDTH:0.842674
G1 X174.604 Y112.65 E.06673
;WIDTH:0.853128
G1 X175.062 Y113.581 E.08299
;WIDTH:0.842674
G1 X175.358 Y114.373 E.06675
;WIDTH:0.853122
G1 X175.624 Y115.376 E.083
;WIDTH:0.842672
G1 X175.759 Y116.211 E.06677
;WIDTH:0.86329
G1 X175.795 Y116.729 E.04206
G1 X175.817 Y117.598 E.07041
;WIDTH:0.853128
G1 X175.727 Y118.655 E.08485
;WIDTH:0.842672
G1 X175.571 Y119.486 E.06675
;WIDTH:0.853122
